X: 36932
T: Short Coated Mary
R: reel
M: 4/4
K: Amixolydian
|:A/A/A e2 edef|g2 dB GABG|A/A/A e2 edef|g2 dB AAAe:|
g2 ge a2 a2|geeg Bdde|g2 ge aged|BedB AAAe|
g2 ge a2 a2|geeg Bdde|A/A/A e2 edef|g2 dB AAAe||

